build/images/svg/youtube.svg

<svg width="18" height="13" viewBox="0 0 18 13" fill="none" xmlns="http://www.w3.org/2000/svg">
  <path fill-rule="evenodd" clip-rule="evenodd" d="M16.0325 0.388849C16.8069 0.602841 17.4169 1.23341 17.6239 2.03406C18 3.48529 18 6.51314 18 6.51314C18 6.51314 18 9.54099 17.6239 10.9922C17.4169 11.7929 16.8069 12.3972 16.0325 12.6112C14.6287 13 9 13 9 13C9 13 3.37127 13 1.96752 12.6112C1.19308 12.3972 0.583143 11.7929 0.376127 10.9922C0 9.54099 0 6.51314 0 6.51314C0 6.51314 0 3.48529 0.376127 2.03406C0.583143 1.23341 1.19308 0.602875 1.96752 0.388849C3.37127 0 9 0 9 0C9 0 14.6288 0 16.0325 0.388849ZM11.8636 6.5132L7.15908 3.76408V9.2622L11.8636 6.5132Z" fill="black"/>
</svg>

<svg width="18" height="13" fill="none" xmlns="http://www.w3.org/2000/svg"><path fill-rule="evenodd" clip-rule="evenodd" d="M16.032.389a2.294 2.294 0 011.592 1.645C18 3.485 18 6.514 18 6.514s0 3.027-.376 4.478a2.258 2.258 0 01-1.591 1.62C14.628 13 9 13 9 13s-5.629 0-7.032-.389a2.258 2.258 0 01-1.592-1.619C0 9.541 0 6.513 0 6.513s0-3.028.376-4.479c.207-.8.817-1.431 1.592-1.645C3.37 0 9 0 9 0s5.629 0 7.032.389zm-4.168 6.124L7.159 3.764v5.498l4.705-2.749z" fill="#000"/></svg>
